X:1
T:Krebel
C:Trad.
O:Vlaanderen
Z:Bart Vanhaverbeke 
L:1/8
M:2/4
K:Em
"Traag"EG EG | FD D2 | EG EG | A2 A2 | BB AA | GG FF | EE DD | E2 z2 :|
ee B2 | ee B2 | gg ff | ee dd | ee B2 | AA BB | E2 z2 :|
